X:1103
T:Roddy MacDonald's Fancy
T:Roddy McDonald's Fancy
R:reel
H:See also "The Blackberry Blossom" #117
Z:id:hn-reel-1103
M:C|
L:1/8
K:A
af | ecBe cAAB | c2cB ceaf | ecBe cAAB | cffe f2 :|
|: af | ecef a2af | ecBc ecaf |1 ecef afec | Bffe f2 :|2 ecBe cAAB | cffe f2ec ||
|: B2Bc ~A3B | c2cB ceaf | ecBe cAAB |1 cffe f2ec :|2 cffe f2ef ||
a2ef aefa | efae faef | a2ef afec | Bffe f2ef |
a2ba f2fa | e2fe ceaf | ecBe cAAB | cffe f2 || 

